material/.icons/material/shaker-outline.svg

<svg xmlns="http://www.w3.org/2000/svg" viewBox="0 0 24 24"><path d="M16.88 4l2.15 2.1-5.53 4.4-1-1L16.87 4h.01m0-2a2 2 0 00-1.55.72L9.8 9.65l3.54 3.54 6.94-5.52c.9-.76.97-2.13.13-2.97L18.3 2.59c-.4-.4-.91-.59-1.42-.59M9.1 10.36l-.71.71a1.02 1.02 0 000 1.43l2.11 2.1c.21.2.46.29.72.29s.51-.09.71-.29l.7-.7-3.53-3.54M6 15c-.55 0-1 .45-1 1s.45 1 1 1 1-.45 1-1-.45-1-1-1m3 1c-.55 0-1 .45-1 1s.45 1 1 1 1-.45 1-1-.45-1-1-1m-5 2c-.55 0-1 .45-1 1s.45 1 1 1 1-.45 1-1-.45-1-1-1m3 1c-.55 0-1 .45-1 1s.45 1 1 1 1-.45 1-1-.45-1-1-1z"/></svg>

<?xml version="1.0" encoding="UTF-8"?><!DOCTYPE svg PUBLIC "-//W3C//DTD SVG 1.1//EN" "http://www.w3.org/Graphics/SVG/1.1/DTD/svg11.dtd"><svg xmlns="http://www.w3.org/2000/svg" xmlns:xlink="http://www.w3.org/1999/xlink" version="1.1" id="mdi-shaker-outline" width="24" height="24" viewBox="0 0 24 24"><path d="M16.88 4L16.88 4L19.03 6.1L13.5 10.5L12.5 9.5L16.87 4L16.88 4M16.88 2C16.3 2 15.73 2.24 15.33 2.72L9.8 9.65L13.34 13.19L20.28 7.67C21.18 6.91 21.25 5.54 20.41 4.7L18.3 2.59C17.9 2.19 17.39 2 16.88 2M9.1 10.36L8.39 11.07C8 11.46 8 12.09 8.39 12.5L10.5 14.6C10.71 14.8 10.96 14.89 11.22 14.89S11.73 14.8 11.93 14.6L12.63 13.9L9.1 10.36M6 15C5.45 15 5 15.45 5 16C5 16.55 5.45 17 6 17C6.55 17 7 16.55 7 16C7 15.45 6.55 15 6 15M9 16C8.45 16 8 16.45 8 17S8.45 18 9 18C9.55 18 10 17.55 10 17S9.55 16 9 16M4 18C3.45 18 3 18.45 3 19S3.45 20 4 20C4.55 20 5 19.55 5 19S4.55 18 4 18M7 19C6.45 19 6 19.45 6 20S6.45 21 7 21C7.55 21 8 20.55 8 20S7.55 19 7 19Z" /></svg>
